X:171
T:The Rising Zombie Jig
C:Philippe Murphy
N:2007-09-30
M:4/4
L:1/8
R:jig
K:Ador
|: A3 eAf | A3 ged | G3 dGe | G3 edB |
A3 eAf | A3 ged | cBA GAB |1 A3 A2G :|2 A3 A2D |
|: E3 GEA | EBE AFD | E3 GFE | F3 DEF |
E3 GEA | EBE dAF | GFE DEF |1 E3 E2D :|2 E3 E2G |]
